packages/match-logos/mono/svg/lyft.svg

<svg fill="none" height="50" viewBox="0 0 71 50" width="71" xmlns="http://www.w3.org/2000/svg" xmlns:xlink="http://www.w3.org/1999/xlink"><clipPath id="a"><path d="m0 0h70.8333v50h-70.8333z"/></clipPath><g clip-path="url(#a)"><path d="m0 .833339h10.7583v28.833361c0 4.575 2.075 7.2916 3.75 8.4333-1.75 1.5333-7.07497 2.8917-11.0833-.3917-2.35-1.925-3.425-5.1416-3.425-8.15zm67.1667 23.974961v-3.0416h3.2916v-10.6167h-3.6166c-.691-3.46999-2.6555-6.55583-5.5069-8.65049-2.8515-2.094652-6.3835-3.046489-9.9014-2.668269-3.5179.378219-6.7669 2.059119-9.1079 4.712039-2.341 2.65291-3.6046 6.08582-3.5422 9.62342v24.8c1.2608.2067 2.5511.1411 3.7844-.1924 1.2333-.3334 2.3809-.9271 3.3656-1.741 2.3584-1.9333 3.4334-5.15 3.4334-8.15v-.9333h5.3583v-10.6167h-5.3583v-3.2166c0-.957.3801-1.8748 1.0568-2.5515s1.5945-1.0569 2.5515-1.0569 1.8748.3802 2.5515 1.0569 1.0568 1.5945 1.0568 2.5515v10.6583c0 3.7572 1.4926 7.3606 4.1494 10.0174 2.6567 2.6567 6.2601 4.1493 10.0173 4.1493v-10.5584c-.9482-.0021-1.8571-.3792-2.5284-1.049-.6713-.6697-1.0505-1.5777-1.0549-2.526zm-40.675-13.6916v15.625c-.0625.3915-.2626.7479-.5642 1.0053-.3017.2573-.6852.3986-1.0817.3986s-.78-.1413-1.0816-.3986c-.3017-.2574-.5017-.6138-.5642-1.0053v-15.625h-10.6167v18.3333c0 3.2917 1.1084 7.5 6.2167 8.8333 5.1083 1.3334 8.0417-1.4666 8.0417-1.4666-.2834 1.8583-2 3.2166-4.825 3.5-2.1139.0936-4.223-.2703-6.1834-1.0667v9.725c3.4688 1.0878 7.1514 1.3081 10.725.6417 6.5084-1.25 10.6167-6.6667 10.6167-13.9417v-24.6333h-10.6833z" fill="#1f304c"/></g></svg>

<svg width="71" height="50" viewBox="0 0 71 50" fill="none" xmlns="http://www.w3.org/2000/svg">
<g clip-path="url(#clip0)">
<path d="M0 0.833339H10.7583V29.6667C10.7583 34.2417 12.8333 36.9583 14.5083 38.1C12.7583 39.6333 7.43333 40.9917 3.425 37.7083C1.075 35.7833 0 32.5667 0 29.5583V0.833339ZM67.1667 24.8083V21.7667H70.4583V11.15H66.8417C66.1507 7.68001 64.1862 4.59417 61.3348 2.49951C58.4833 0.404858 54.9513 -0.546979 51.4334 -0.168759C47.9155 0.20946 44.6665 1.89036 42.3255 4.54328C39.9845 7.19619 38.7209 10.6291 38.7833 14.1667V38.9667C40.0441 39.1734 41.3344 39.1078 42.5677 38.7743C43.801 38.4409 44.9486 37.8472 45.9333 37.0333C48.2917 35.1 49.3667 31.8833 49.3667 28.8833V27.95H54.725V17.3333H49.3667V14.1167C49.3667 13.1597 49.7468 12.2419 50.4235 11.5652C51.1002 10.8885 52.018 10.5083 52.975 10.5083C53.932 10.5083 54.8498 10.8885 55.5265 11.5652C56.2032 12.2419 56.5833 13.1597 56.5833 14.1167V24.775C56.5833 28.5322 58.0759 32.1356 60.7327 34.7924C63.3894 37.4491 66.9928 38.9417 70.75 38.9417V28.3833C69.8018 28.3812 68.8929 28.0041 68.2216 27.3343C67.5503 26.6646 67.1711 25.7566 67.1667 24.8083ZM26.4917 11.1167V26.7417C26.4292 27.1332 26.2291 27.4896 25.9275 27.747C25.6258 28.0043 25.2423 28.1456 24.8458 28.1456C24.4493 28.1456 24.0658 28.0043 23.7642 27.747C23.4625 27.4896 23.2625 27.1332 23.2 26.7417V11.1167H12.5833V29.45C12.5833 32.7417 13.6917 36.95 18.8 38.2833C23.9083 39.6167 26.8417 36.8167 26.8417 36.8167C26.5583 38.675 24.8417 40.0333 22.0167 40.3167C19.9028 40.4103 17.7937 40.0464 15.8333 39.25V48.975C19.3021 50.0628 22.9847 50.2831 26.5583 49.6167C33.0667 48.3667 37.175 42.95 37.175 35.675V11.0417H26.4917V11.1167Z" fill="#1F304C"/>
</g>
<defs>
<clipPath id="clip0">
<rect width="70.8333" height="50" fill="white"/>
</clipPath>
</defs>
</svg>
